X: 1
T: String Quartet in C Major opus 33 no 3 mvt 3
C: Franz Joseph Haydn
%%abc-version 2.0
%%abcx-abcm2ps-target-version 5.9.1 (29 Sep 2008)
%%abc-creator hum2abc beta
%%abcx-conversion-date 2021/02/14 14:38:16
%%abc-copyright Copyright (c) 1994, 2000 Center for Computer Assisted Research in the Humanities
%%abc-edited-by Frances Bennion
%%abcx-initial-encoding-date 1997/04/15
%%gracespace 0 6 6
%%humdrum-veritas 491470692
%%humdrum-veritas-data 496352243
%%linebreak <none>
%%barnumbers 0
L: 1/8
M: 3/4
N: Derived from op33n3-03.krn
Q: "Adagio"
%%staves [1 2 3 4]
V: 1
V: 2
V: 3 clef=alto
V: 4 clef=bass
K: F
[V:1]c3/d//c// B2 A2 [I:setbarnb2] |
[V:2]A2 G2 F2 |
[V:3]C2 E2 F2 |
[V:4]F,2 G,2 A,2 |
[V:1]G>E FG AB |
[V:2]E2 FC CF |
[V:3]C2- CE FF |
[V:4]B,2 A,E, F,D, |
[V:1]c3/B//c// dD BG |
[V:2]F4 DB, |
[V:3]F2 D4 |
[V:4]A,,2 B,,4 |
[V:1]F2 Ez3 |
[V:2]A,2 G,z3 |
[V:3]C2 >C2 CC |
[V:4]C,4 z2 |
[V:1]B3/c//B// A2 G2 |
[V:2]G2 F2 E2 |
[V:3]E,2 C3 _D |
[V:4]C4 B,2 |
[V:1]c3/d//e// fg af |
[V:2]F2- FB Ac |
[V:3]C2 >C2 CF |
[V:4]A,2- A,E, F,A,, |
[V:1]dc/B/ Ac EG |
[V:2]BA/G/ FA, G,B, |
[V:3]F>D CC B,E, |
[V:4]B,,2 C,2 C,2 |
[V:1]G2 Fz3 |
[V:2]B,2 A,z3 |
[V:3]E,2 F,z3 |
[V:4]F,,2 >F,2 A,C |
[V:1]c3/d//c// f2 e2 |
[V:2]A2 =B2 c2 |
[V:3]F4 G2 |
[V:4]F2 D2 C2 |
[V:1]d3/e//d// a2 g2 |
[V:2]A2 =B2 ce |
[V:3]F4 E2 |
[V:4]F,2 D,2 E,2 |
[V:1]f4 e2 |
[V:2]e2 d2 c2 |
[V:3]C2 DG G2 |
[V:4]A,2 =B,2 C2 |
[V:1]_e2 _a2 fd |
[V:2]c2 _d3 F |
[V:3]_A2 A4 |
[V:4]_A,2 F,4 |
[V:1]=B4 z2 |
[V:2]_E2 DG GG |
[V:3]G4 z2 |
[V:4]G,4 z2 |
[V:1]dd/=B/ c/g/g dd/B/ |
[V:2]G6 |
[V:3]Fz Ez Fz |
[V:4]z6 |
[V:1]c/g/g dd/=B/ c/g/g |
[V:2]G6 |
[V:3]Ez Fz Ez |
[V:4]z6 |
[V:1]a/=b/c' af d=B |
[V:2]A2 zA FD |
[V:3]C2 z2 G,2 |
[V:4]F,2 z2 G,2 |
[V:1]c2 z2 ee/A/ |
[V:2]E2 z2 B2 |
[V:3]CG GG GG |
[V:4]C,2 z2 ^C2 |
[V:1]A/a/a dd/G/ G/g/g |
[V:2]Az _A2 Gz |
[V:3]FF FF EE |
[V:4]Dz =B,2 Cz |
[V:1]C/<E/E/<G/ G/<c/c/<e/ e/<g/g//c'3// |
[V:2][G2c2] z4 |
[V:3]C2 z4 |
[V:4]E,2 z4 |
[V:1]^g2 >a2 fd |
[V:2]^G2 >A2 FF |
[V:3]zC CC DD |
[V:4]zF, F,F, F,F, |
[V:1]c4 d3/c/ |
[V:2]EE EE FF |
[V:3]EE GG =B,B, |
[V:4]G,G, G,G, G,G, |
[V:1]C/<E/E/<G/ G/<c/c/<e/ e/<g/g//c'3// |
[V:2][G,2E2] z4 |
[V:3]C2 z4 |
[V:4][C2E,2] z4 |
[V:1]_a4 g2 |
[V:2]_A4 B2 |
[V:3]zC CC [EC][EC] |
[V:4]zF, F,F, G,G, |
[V:1]^f2 =f2 e2 |
[V:2]c2 d2 G2 |
[V:3][_EC][EC] [DG,][G,D] CC |
[V:4]A,A, =B,B, CC |
[V:1](3:2:2d4- d/^c|
[V:2]A4- AB |
[V:3]D4- DE |
[V:4]F,4- F,G, |
[V:1]dz fz =B3/c/ |
[V:2]Az Az F2 |
[V:3]Dz Dz D2 |
[V:4]F,z D,z G,2 |
[V:1]c2 z2 =B3/c/ |
[V:2]EG EE FF |
[V:3]CE CC DD |
[V:4]C,2 z2 G,2 |
[V:1]c2 z2 =B3/c/ |
[V:2]EG EE FF |
[V:3]CE CC DD |
[V:4]C,2 z2 G,2 |
[V:1]c2 z4 |
[V:2]E2 zG AB |
[V:3]C2 zE FE |
[V:4]C,C CB, A,G, |
[V:1]c3/d//c// B2 A2 |
[V:2]A2 G2 F2 |
[V:3]F2 GE F2 |
[V:4]F,2 G,2 A,2 |
[V:1]G>E F(3z/^F/G/ (3z/^G/A/(3z/A/B/ |
[V:2]E2 FC CF |
[V:3]C2- CE FF |
[V:4]B,2 A,E, F,D, |
[V:1](3z/=B/c/(3d/e/f/ ^c(3d/e/^f/ (3g/a/=b/(3c'/^c'/d'/ |
[V:2]F4 z2 |
[V:3]F2 B,2 z2 |
[V:4]A,,2 B,,2 z2 |
[V:1]f3/g//f// ez3 |
[V:2]A2 Gz3 |
[V:3]C2 z4 |
[V:4]C,2 >C2 CC |
[V:1]B3/c//B// A2 G2 |
[V:2]G2 F2 E2 |
[V:3]GE2 <C2 _D |
[V:4]C4 B,2 |
[V:1]c3/d//e// fe//g//b//g// f//a//c'//a//e//g//f//a// |
[V:2]F2 >B,2 CF |
[V:3]C2 >E2 FC |
[V:4]A,2 >G,2 A,A, |
[V:1]^c//e//d//f//d/=c//B// A//B//A//B//=B/c/ E/E/F/G/ |
[V:2]F2 >>A,2 G,/G,/A,/B,/ |
[V:3]D2 C2 z3/E,/ |
[V:4]B,2 C2 C,2 |
[V:1]G2 Fz3 |
[V:2]B,2 A,z3 |
[V:3]E,2 F,z3 |
[V:4]F,,2 >F,2 A,C |
[V:1]c3/d//c// f2 e2 |
[V:2]A2 =B2 c2 |
[V:3]F4 G2 |
[V:4]F2 D2 C2 |
[V:1]d//^c//e//d//f//e//g//f// a2 g/=b/(3c'/g/e/ |
[V:2]A2 =B2 ce |
[V:3]F2 F2 E2 |
[V:4]F,2 D,2 E,2 |
[V:1]f2 f//=b//d'//b//f'//d'//b//f// e2 |
[V:2]e2 d2 c2 |
[V:3]C2 DG G2 |
[V:4]A,2 =B,2 C2 |
[V:1]_e2 [_a2_A2] fd |
[V:2]c2 _d3 F |
[V:3]_A2 A4 |
[V:4]_A,2 F,4 |
[V:1]c2 =B2 z2 |
[V:2]_E2 DG GG |
[V:3]G4 z2 |
[V:4]G,4 z2 |
[V:1]dd/=B/ c/g/g (3^c/d/e/(3f/d/B/ |
[V:2]GG GG GG |
[V:3]Fz Ez Fz |
[V:4]z6 |
[V:1](3=B/c/e/(3^f/a/g/ d//=f//e//g//f//d//c//B// c//e//d//f//e//g//e//c// |
[V:2]GG GG GG |
[V:3]Ez Fz Ez |
[V:4]z6 |
[V:1]A//a//=B//=b//c//c'//c//c'// A//a//A//a//F//f//F//f// [Dd]B |
[V:2]C2 zA FD |
[V:3]F2 z2 G2 |
[V:4]F,2 z2 G,2 |
[V:1]c2 z2 ee/A/ |
[V:2]E2 z2 Az |
[V:3]CG GG Gz |
[V:4]C,2 z2 ^Cz |
[V:1]A/a/a (3d/^c/=c/(3=B/_B/A/ Gg |
[V:2]Az Gz Gz |
[V:3]Fz Gz Ez |
[V:4]Dz =B,z Cz |
[V:1]C/<E/E/<G/ G/<c/c/<e/ e/<g/g//c'3// |
[V:2][c2G2] z4 |
[V:3]G,2 z4 |
[V:4]C2 z4 |
[V:1]^g2 >a2 fd |
[V:2]^G2 >A2 FF |
[V:3]zC CC DD |
[V:4]zF, F,F, F,F, |
[V:1]c4 d3/c/ |
[V:2]EE EE FF |
[V:3]EE GG =B,B, |
[V:4]G,G, G,G, G,G, |
[V:1](3C/E/D/(3F/E/A/ (3G/c/=B/(3d/c/e/ (3d/f/e/(3_a/g/c'/ |
[V:2][G,2E2] z4 |
[V:3]C2 z4 |
[V:4]C2 z4 |
[V:1]_a4 g2 |
[V:2]_A4 B2 |
[V:3]zC CC [CE][EC] |
[V:4]zF, F,F, G,G, |
[V:1]^f2 =f2 e2 |
[V:2]c2 d2 G2 |
[V:3][C_E][EC] [DG,][G,D] CC |
[V:4]A,A, =B,B, CC |
[V:1]d2- d//^c//d//c//d//c//d//c// dc |
[V:2]A4- AB |
[V:3]D4 DE |
[V:4]F,4- F,G, |
[V:1]dz fz =B3/c/ |
[V:2]Az Az F3/E/ |
[V:3]Dz Dz D2 |
[V:4]F,z D,z G,2 |
[V:1]c2 z2 =B3/c/ |
[V:2]EG EE FF |
[V:3]CE CC DD |
[V:4]C,2 z2 G,2 |
[V:1]c2 z2 =B3/c/ |
[V:2]EG EE FF |
[V:3]CE CC DD |
[V:4]C,2 z2 G,2 |
[V:1]c2 z2 c3/_d/ |
[V:2]_EE EE EE |
[V:3]CC CC CC |
[V:4]C,2 z4 |
[V:1](3:2:2_d2-d//c/B/ _A/G/F/_E/ _D/|
[V:2]B,/_D/B,/D/ B,/D/B,/D/ B,/D/B,/D/ |
[V:3]G,G, G,G, G,G, |
[V:4]_E,,E,, E,,E,, E,,E,, |
[V:1]C2 >c2 cc |
[V:2]B,/C/B,/C/ B,/C/B,/C/ B,/C/B,/C/ |
[V:3]G,G, G,G, G,G, |
[V:4]E,,E,, E,,E,, E,,E,, |
[V:1](3:2:2_e2-e//d/c/ B/A/G/F/ _E/|
[V:2]C/_E/C/E/ C/E/C/E/ C/E/C/E/ |
[V:3]A,A, A,A, A,A, |
[V:4]F,,F,, F,,F,, F,,F,, |
[V:1]D2 >d2 dd |
[V:2]C/D/C/D/ C/D/C/D/ C/D/C/D/ |
[V:3]A,A, A,A, A,A, |
[V:4]^F,,F,, F,,F,, F,,F,, |
[V:1]b2 >a2 gf |
[V:2]B,d2 c BA |
[V:3]G,G, G,A, B,=B, |
[V:4]G,,G,, G,,A,, B,,=B,, |
[V:1]f2 e2 z2 |
[V:2]A2 GG AB |
[V:3]C2 >E2 FE |
[V:4]C,2 >B,2 A,G, |
[V:1]c3/d//c// B2 A2 |
[V:2]A2 G2 F2 |
[V:3]C2 E2 F2 |
[V:4]F,2 G,2 A,2 |
[V:1]G>E FG AB |
[V:2]E2 FC CF |
[V:3]C2- CE FF |
[V:4]B,2 A,E, F,D, |
[V:1]c3/B//c// dD BG |
[V:2]F4 DB, |
[V:3]F2 D4 |
[V:4]A,,2 B,,4 |
[V:1]F2 Ez3 |
[V:2]A,2 G,z3 |
[V:3]C2 >C2 CC |
[V:4]C,4 z2 |
[V:1]B3/c//B// A2 G2 |
[V:2]G2 F2 E2 |
[V:3]E,2 C3 _D |
[V:4]C4 B,2 |
[V:1]c3/d//e// f/g/a/b/ c'/d'/e'/f'/ |
[V:2][F2C2] z4 |
[V:3]C2 z4 |
[V:4]A,2 z4 |
[V:1]zD zB zE |
[V:2]Dz Bz Ez |
[V:3]B,z Dz B,z |
[V:4]B,,z G,,z C,z |
[V:1](3zEF (3z^cd (3z^FG |
[V:2]Fz dz Gz |
[V:3]A,z Dz Cz |
[V:4]D,z B,,z E,z |
[V:1](3z/^G/A/(3B/A/c/ (3z/e/f/(3g/f/a/ (3g/f/e/(3d/c/=B/ |
[V:2]Az =B2- Bd/F/ |
[V:3]Cz F,4 |
[V:4]F,z D,4 |
[V:1]=B2 cz3 |
[V:2]F2 Ec cc |
[V:3]G,2 z4 |
[V:4]C,4 z2 |
[V:1]gg/e/ f/c'/c' gg/e/ |
[V:2]cc cc cc |
[V:3]Bz Az Bz |
[V:4]z6 |
[V:1]f//g//a//b//c'/c'/ c'/b/g/e/ f//g//a//b//c'//d'//e'//f'// |
[V:2]cc cc cc |
[V:3]Az B,z A,z |
[V:4]z2 B,z A,z |
[V:1]e'/d'/^c'/d'/ =c'/b/a/b/ b/g/f/e/ |
[V:2]F2 z2 B2 |
[V:3]D2 z2 G2 |
[V:4]B,2 z2 C2 |
[V:1]f2 z2 AA/D/ |
[V:2]A2 z2 Dz |
[V:3]FC CC Cz |
[V:4]F,2 z2 ^F,z |
[V:1]D/d/d (3G/^F/=F/(3E/_E/D/ Cc |
[V:2]Dz Cz Cz |
[V:3]B,z B,z A,z |
[V:4]G,z E,z F,z |
[V:1]A,/<C/C/<F/ F/<A/A/<c/ c/<f/f//a3// |
[V:2][A,2F2] z4 |
[V:3]A,2 z4 |
[V:4]F,,2 z4 |
[V:1]^c2 >d2 BG |
[V:2]^C2 >D2 B,B, |
[V:3]zF, F,F, G,G, |
[V:4]zB,, B,,B,, B,,B,, |
[V:1]F4 G3/F/ |
[V:2]A,A, A,A, B,B, |
[V:3]A,A, CC E,E, |
[V:4]C,C, C,C, C,C, |
[V:1](3A,/C/B,/(3D/C/F/ (3E/G/F/(3A/G/B/ (3A/c/B/(3d/c/f/ |
[V:2][F2A,2] z4 |
[V:3]F,2 z4 |
[V:4]F,2 z4 |
[V:1]_d4 c2 |
[V:2]_D4 _G2 |
[V:3]zF FF _EE |
[V:4]zB,, B,,B,, _E,E, |
[V:1]=B2 _B2 A2 |
[V:2]F2 G2 C2 |
[V:3]DD CC CC |
[V:4]D,D, E,E, F,F, |
[V:1](3:2:2G4- G/^F|
[V:2]D4- D_E |
[V:3]B,4- B,A, |
[V:4]B,4- B,C |
[V:1]Gz Bz E3/F/ |
[V:2]Dz Dz B,3/A,/ |
[V:3]B,z G,z Cz |
[V:4]B,z G,z Cz |
[V:1]F2 <z2 E3/F/ |
[V:2]A,C A,A, B,3/A,/ |
[V:3]F,A, F,F, G,3/A,/ |
[V:4]F,2 z2 C,2 |
[V:1]F2 <z2 E3/F/ |
[V:2]A,C A,A, B,3/A,/ |
[V:3]F,A, F,F, G,3/A,/ |
[V:4]F,2 z2 C,2 |
[V:1]F2 <z2 Fz |
[V:2]A,2 <z2 A,z |
[V:3]A,2 <z2 F,z |
[V:4]F,,2 <z2 F,,z |
[V:1]F(3:2:2z4 z/ |]
[V:2]A,z4 z|]
[V:3]F,z4 z |]
[V:4]F,,z4 z |]

